projects/seb-pictograms/svg/light/46-Picto-Light_black.svg

<svg xmlns="http://www.w3.org/2000/svg" viewBox="0 0 170 170"><path d="M152.2 165H30.9a1.5 1.5 0 01-1.5-1.5V6.5A1.5 1.5 0 0130.9 5h121.3a1.5 1.5 0 011.5 1.5v157a1.5 1.5 0 01-1.5 1.5zm-119.8-3h118.3V8H32.4z"/><path d="M96.5 66.9a16 16 0 1116-16 16 16 0 01-16 16zm0-29a13 13 0 1013 13 13 13 0 00-13-13zm23.5 57h-3A12.8 12.8 0 00104.3 82H88.7A12.8 12.8 0 0076 94.9h-3a15.8 15.8 0 0115.7-16h15.5a15.8 15.8 0 0115.8 16zM30.9 55.7a14.6 14.6 0 1114.6-14.6h-3a11.6 11.6 0 10-11.6 11.6zm0 42.5a14.6 14.6 0 1114.6-14.6h-3a11.6 11.6 0 10-11.6 11.6zm0 42.5a14.6 14.6 0 1114.6-14.6h-3a11.6 11.6 0 10-11.6 11.6zm41.3-27.9H111v3H72.2zm0 18.9h21.4v3H72.2z"/></svg>

<svg id="PIKTO_LIGHT" xmlns="http://www.w3.org/2000/svg" viewBox="0 0 170 170"><title>light_black</title><path d="M152.2,165H30.9a1.5,1.5,0,0,1-1.5-1.5V6.5A1.5,1.5,0,0,1,30.9,5H152.2a1.5,1.5,0,0,1,1.5,1.5v157A1.5,1.5,0,0,1,152.2,165ZM32.4,162H150.7V8H32.4Z"/><path d="M96.5,66.9a16,16,0,1,1,16-16A16,16,0,0,1,96.5,66.9Zm0-29a13,13,0,1,0,13,13A13,13,0,0,0,96.5,37.9Z"/><path d="M120,94.9h-3a12.8,12.8,0,0,0-12.7-12.9H88.7A12.8,12.8,0,0,0,76,94.9H73A15.8,15.8,0,0,1,88.7,78.9h15.5A15.8,15.8,0,0,1,120,94.9Z"/><path d="M30.9,55.7A14.6,14.6,0,1,1,45.5,41.1h-3A11.6,11.6,0,1,0,30.9,52.7Z"/><path d="M30.9,98.2A14.6,14.6,0,1,1,45.5,83.6h-3A11.6,11.6,0,1,0,30.9,95.2Z"/><path d="M30.9,140.7a14.6,14.6,0,1,1,14.6-14.6h-3a11.6,11.6,0,1,0-11.6,11.6Z"/><rect x="72.2" y="112.8" width="38.8" height="3"/><rect x="72.2" y="131.7" width="21.4" height="3"/></svg>
